assets/images/bangzhuzhongxin.svg

<svg xmlns="http://www.w3.org/2000/svg" preserveAspectRatio="xMidYMid" width="198" height="46" viewBox="0 0 198 46"><defs><style>.cls-1{fill:#1c1c1c;fill-rule:evenodd}</style></defs><path d="M193.185 35.154c-2.861-7.346-5.982-13.815-9.362-19.406l1.707-.585a131.695 131.695 0 0 1 9.166 19.309l-1.511.682zm-10.776 6.68c-.846 1.202-2.211 1.804-4.096 1.804h-10.97c-2.731 0-4.096-1.268-4.096-3.803V11.214h1.706v28.28c0 1.625.959 2.438 2.877 2.438h10.191c1.494 0 2.551-.456 3.169-1.366.78-1.299 1.317-5.038 1.609-11.214l1.56.536c-.292 6.241-.943 10.223-1.95 11.946zM166.172 2.535l1.414-.878c4.876 4.551 8.565 8.452 11.069 11.702l-1.414.975c-2.699-3.575-6.388-7.509-11.069-11.799zm-15.846 34.179c2.698-5.72 4.697-12.303 5.997-19.747l1.609.342c-1.462 7.834-3.51 14.611-6.143 20.332l-1.463-.927zm-8.582-8.191h-16.041v17.065h-1.755V28.523h-15.993v3.511h-1.707V10.141h17.7V.828h1.755v9.313h17.748v21.893h-1.707v-3.511zm-17.796-16.724h-15.993v15.066h15.993V11.799zm17.796 0h-16.041v15.066h16.041V11.799zm-53 32.912l-3.267-.098-.39-1.511c1.82.065 3.006.097 3.56.097 3.64 0 5.753-1.772 6.338-5.314.357-2.86.585-11.344.683-25.452h-9.557c-.195 14.953-3.722 25.907-10.58 32.863l-1.317-1.17c6.696-6.631 10.109-17.195 10.239-31.693h-6.631v-1.609h6.631V1.267h1.658v9.557h11.215c0 14.562-.228 23.664-.683 27.304-.52 4.389-3.153 6.583-7.899 6.583zm-10.776-9.459c-6.468 2.243-13.798 4.258-21.99 6.046l-.438-1.609 3.461-.732V4.095H74.36v30.718l3.608-1.17v1.609zM72.654 5.704H60.659v9.167h11.995V5.704zm0 10.727H60.659v9.313h11.995v-9.313zm0 10.873H60.659v11.263a177.638 177.638 0 0 0 11.995-3.218v-8.045zm-27.11-4.047c-1.3.325-2.877.488-4.729.488l-.586-1.609c.65.065 1.073.097 1.268.097 4.063 0 6.095-1.089 6.095-3.267 0-1.365-1.528-3.494-4.583-6.387a42.012 42.012 0 0 0 4.388-7.46H36.524v20.625h-1.658V3.559h14.335v1.17c-1.333 2.991-2.779 5.607-4.339 7.85 2.925 2.373 4.388 4.503 4.388 6.387-.033 2.276-1.268 3.706-3.706 4.291zM21.896 11.116h7.997v1.512h-7.997c-.097 1.918-.341 3.608-.731 5.071h9.995v1.511H20.677a14.702 14.702 0 0 1-1.56 3.023c-1.788 2.438-4.714 4.34-8.776 5.705l-.927-1.414c3.868-1.268 6.712-3.072 8.533-5.412.26-.422.585-1.056.975-1.902H8.536v-1.511h10.922c.422-1.495.683-3.186.781-5.071h-9.362v-1.512h9.362V6.094H9.95v-1.56h10.289V1.121h1.657v3.413h9.362v1.56h-9.362v5.022zm7.46 13.653h1.658v5.119h15.652v9.362c0 2.21-1.155 3.315-3.462 3.315h-4.145l-.439-1.609 4.047.049c1.561 0 2.341-.698 2.341-2.096v-7.461H31.014v14.14h-1.658v-14.14H15.558v11.166H13.9V29.888h15.456v-5.119z" class="cls-1"/></svg>

<svg xmlns="http://www.w3.org/2000/svg" xmlns:xlink="http://www.w3.org/1999/xlink" preserveAspectRatio="xMidYMid" width="198" height="46" viewBox="0 0 198 46">
  <defs>
    <style>
      .cls-1 {
        fill: #1c1c1c;
        fill-rule: evenodd;
      }
    </style>
  </defs>
  <path d="M193.185,35.154 C190.324,27.808 187.203,21.339 183.823,15.748 L185.530,15.163 C189.072,21.275 192.128,27.711 194.696,34.472 L193.185,35.154 ZM182.409,41.834 C181.563,43.036 180.198,43.638 178.313,43.638 L167.343,43.638 C164.612,43.638 163.247,42.370 163.247,39.835 L163.247,11.214 L164.953,11.214 L164.953,39.494 C164.953,41.119 165.912,41.932 167.830,41.932 L178.021,41.932 C179.515,41.932 180.572,41.476 181.190,40.566 C181.970,39.267 182.507,35.528 182.799,29.352 L184.359,29.888 C184.067,36.129 183.416,40.111 182.409,41.834 ZM166.172,2.535 L167.586,1.657 C172.462,6.208 176.151,10.109 178.655,13.359 L177.241,14.334 C174.542,10.759 170.853,6.825 166.172,2.535 ZM150.326,36.714 C153.024,30.994 155.023,24.411 156.323,16.967 L157.932,17.309 C156.470,25.143 154.422,31.920 151.789,37.641 L150.326,36.714 ZM141.744,28.523 L125.703,28.523 L125.703,45.588 L123.948,45.588 L123.948,28.523 L107.955,28.523 L107.955,32.034 L106.248,32.034 L106.248,10.141 L123.948,10.141 L123.948,0.828 L125.703,0.828 L125.703,10.141 L143.451,10.141 L143.451,32.034 L141.744,32.034 L141.744,28.523 ZM123.948,11.799 L107.955,11.799 L107.955,26.865 L123.948,26.865 L123.948,11.799 ZM141.744,11.799 L125.703,11.799 L125.703,26.865 L141.744,26.865 L141.744,11.799 ZM88.744,44.711 L85.477,44.613 L85.087,43.102 C86.907,43.167 88.093,43.199 88.647,43.199 C92.287,43.199 94.400,41.427 94.985,37.885 C95.342,35.025 95.570,26.541 95.668,12.433 L86.111,12.433 C85.916,27.386 82.389,38.340 75.531,45.296 L74.214,44.126 C80.910,37.495 84.323,26.931 84.453,12.433 L77.822,12.433 L77.822,10.824 L84.453,10.824 L84.453,1.267 L86.111,1.267 L86.111,10.824 L97.326,10.824 C97.326,25.386 97.098,34.488 96.643,38.128 C96.123,42.517 93.490,44.711 88.744,44.711 ZM77.968,35.252 C71.500,37.495 64.170,39.510 55.978,41.298 L55.540,39.689 L59.001,38.957 L59.001,4.095 L74.360,4.095 L74.360,34.813 L77.968,33.643 L77.968,35.252 ZM72.654,5.704 L60.659,5.704 L60.659,14.871 L72.654,14.871 L72.654,5.704 ZM72.654,16.431 L60.659,16.431 L60.659,25.744 L72.654,25.744 L72.654,16.431 ZM72.654,27.304 L60.659,27.304 L60.659,38.567 C64.852,37.592 68.851,36.519 72.654,35.349 L72.654,27.304 ZM45.544,23.257 C44.244,23.582 42.667,23.745 40.815,23.745 L40.229,22.136 C40.879,22.201 41.302,22.233 41.497,22.233 C45.560,22.233 47.592,21.144 47.592,18.966 C47.592,17.601 46.064,15.472 43.009,12.579 C44.731,10.239 46.194,7.752 47.397,5.119 L36.524,5.119 L36.524,25.744 L34.866,25.744 L34.866,3.559 L49.201,3.559 L49.201,4.729 C47.868,7.720 46.422,10.336 44.862,12.579 C47.787,14.952 49.250,17.082 49.250,18.966 C49.217,21.242 47.982,22.672 45.544,23.257 ZM21.896,11.116 L29.893,11.116 L29.893,12.628 L21.896,12.628 C21.799,14.546 21.555,16.236 21.165,17.699 L31.160,17.699 L31.160,19.210 L20.677,19.210 C20.255,20.316 19.734,21.323 19.117,22.233 C17.329,24.671 14.403,26.573 10.341,27.938 L9.414,26.524 C13.282,25.256 16.126,23.452 17.947,21.112 C18.207,20.690 18.532,20.056 18.922,19.210 L8.536,19.210 L8.536,17.699 L19.458,17.699 C19.880,16.204 20.141,14.513 20.239,12.628 L10.877,12.628 L10.877,11.116 L20.239,11.116 L20.239,6.094 L9.950,6.094 L9.950,4.534 L20.239,4.534 L20.239,1.121 L21.896,1.121 L21.896,4.534 L31.258,4.534 L31.258,6.094 L21.896,6.094 L21.896,11.116 ZM29.356,24.769 L31.014,24.769 L31.014,29.888 L46.666,29.888 L46.666,39.250 C46.666,41.460 45.511,42.565 43.204,42.565 L39.059,42.565 L38.620,40.956 L42.667,41.005 C44.228,41.005 45.008,40.307 45.008,38.909 L45.008,31.448 L31.014,31.448 L31.014,45.588 L29.356,45.588 L29.356,31.448 L15.558,31.448 L15.558,42.614 L13.900,42.614 L13.900,29.888 L29.356,29.888 L29.356,24.769 Z" class="cls-1"/>
</svg>
